icon-svg/aqara-h1-dimmer.svg

<svg xmlns="http://www.w3.org/2000/svg" fill="#44739e" viewBox="0 0 24 24"><path d="M13.547 7.593c-.087 0-.173.01-.259.015s-.172-.015-.26-.015a4.2 4.2 0 0 0-.881.1 5.1 5.1 0 0 0-3.784 5.117 5.1 5.1 0 0 0 3.784 5.12 4.34 4.34 0 0 0 1.4.234c.1 0 .208 0 .311-.012a3.27 3.27 0 0 0 1.183-.332 11 11 0 0 0 .994-.605l-.082.043a5.343 5.343 0 0 0 2.257-4.448 5.3 5.3 0 0 0-2.6-4.671 4.24 4.24 0 0 0-2.063-.546M9 14.5a4.92 4.92 0 0 1-.358-1.691 6.335 6.335 0 0 1 .725-2.709 5 5 0 0 1 .329-.49c-.012.023-.023.047-.035.07a7.55 7.55 0 0 0-.717 3.127 7.143 7.143 0 0 0 1.2 3.721A7.68 7.68 0 0 1 9 14.5M3.653 2.664l8.372-.254 9.416-.108-1.549-.27-16.864.319L3.08 21.6l.596.432-.03-12.504Zm.547.493V22l17.334-1.04V2.724ZM19.358 19 6.5 19.824V5.5l12.854-.3Zm-.275-13.519-12.3.291V19.53l12.3-.787zm-4.319 12.482.051-.012a6.95 6.95 0 0 1-1.787.351 5.244 5.244 0 0 1-4.94-5.492 5.243 5.243 0 0 1 4.94-5.492 4.47 4.47 0 0 1 1.437.238 5.244 5.244 0 0 1 3.883 5.254 5.261 5.261 0 0 1-3.584 5.153"/></svg>

<?xml version="1.0" encoding="UTF-8"?>
<svg width="24px" fill="#44739e" height="24px" viewBox="0 0 24 24" version="1.1" xmlns="http://www.w3.org/2000/svg" xmlns:xlink="http://www.w3.org/1999/xlink">
            <path d="m 13.547,7.593 c -0.087,0 -0.173,0.01 -0.259,0.015 -0.086,0.005 -0.172,-0.015 -0.26,-0.015 a 4.216,4.216 0 0 0 -0.881,0.1 5.1,5.1 0 0 0 -3.784,5.117 5.1,5.1 0 0 0 3.784,5.12 4.339,4.339 0 0 0 1.4,0.234 c 0.1,0 0.208,0 0.311,-0.012 a 3.265,3.265 0 0 0 1.183,-0.332 11.051,11.051 0 0 0 0.994,-0.605 l -0.082,0.043 A 5.343,5.343 0 0 0 18.21,12.81 5.3,5.3 0 0 0 15.61,8.139 4.237,4.237 0 0 0 13.547,7.593 Z M 9,14.5 A 4.921,4.921 0 0 1 8.642,12.809 6.335,6.335 0 0 1 9.367,10.1 4.987,4.987 0 0 1 9.696,9.61 C 9.684,9.633 9.673,9.657 9.661,9.68 a 7.551,7.551 0 0 0 -0.717,3.127 7.143,7.143 0 0 0 1.2,3.721 A 7.68,7.68 0 0 1 9,14.5 Z M 3.653,2.664 12.025,2.41 21.441,2.302 19.892,2.032 3.028,2.351 3.08,21.6 3.676,22.032 3.646,9.528 Z M 4.2,3.157 V 22 L 21.534,20.96 V 2.724 Z M 19.358,19 6.5,19.824 V 5.5 L 19.354,5.2 Z M 19.083,5.481 6.783,5.772 V 19.53 l 12.3,-0.787 z m -4.319,12.482 0.051,-0.012 a 6.949,6.949 0 0 1 -1.787,0.351 5.244,5.244 0 0 1 -4.94,-5.492 5.243,5.243 0 0 1 4.94,-5.492 4.469,4.469 0 0 1 1.437,0.238 5.244,5.244 0 0 1 3.883,5.254 5.261,5.261 0 0 1 -3.584,5.153 z"/>

</svg>
